packages/kaspersky-hexa-ui-icons/src/iconsSVGs/48/Connect.svg

<svg width="48" height="48" viewBox="0 0 48 48" fill="none" xmlns="http://www.w3.org/2000/svg">
<path fill-rule="evenodd" clip-rule="evenodd" d="M26.7 24.21L22.27 28.64L18.74 25.1L23.17 20.68L21.75 19.26L17.32 23.69L13.79 20.15L10.25 23.69C9.87445 24.0651 9.66343 24.5742 9.66343 25.105C9.66343 25.6358 9.87445 26.1449 10.25 26.52L6 30.76C4.83019 31.9313 4.83019 33.8287 6 35L6.71 35.71L3.89 38.54L5.66 40.31L0 46L1.41 47.42L7.07 41.76L8.84 43.53L11.67 40.7L12.38 41.41C12.9437 41.9691 13.7061 42.282 14.5 42.28C15.2939 42.282 16.0563 41.9691 16.62 41.41L20.86 37.16C21.2351 37.5356 21.7442 37.7466 22.275 37.7466C22.8058 37.7466 23.3149 37.5356 23.69 37.16L27.22 33.63L23.69 30.09L28.12 25.67L26.7 24.21ZM8.84 40.66L6.72 38.54L8.13 37.12L10.25 39.25L8.84 40.66ZM15.2 40C14.81 40.3877 14.18 40.3877 13.79 40L13.08 39.3L8.13 34.3L7.42 33.6C7.23069 33.4122 7.1242 33.1566 7.1242 32.89C7.1242 32.6234 7.23069 32.3678 7.42 32.18L11.67 27.94L19.45 35.72L15.2 40ZM22.27 35.76L11.67 25.1L13.79 23L24.4 33.59L22.27 35.76ZM41.72 7.07L47.38 1.41L46 0L40.31 5.66L38.54 3.89L35.71 6.72L35 6C33.8287 4.83019 31.9313 4.83019 30.76 6L26.52 10.24C26.1449 9.86445 25.6358 9.65343 25.105 9.65343C24.5742 9.65343 24.0651 9.86445 23.69 10.24L20.15 13.78L33.59 27.22L37.12 23.69C37.4956 23.3149 37.7066 22.8058 37.7066 22.275C37.7066 21.7442 37.4956 21.2351 37.12 20.86L41.37 16.62C42.5398 15.4487 42.5398 13.5513 41.37 12.38L40.66 11.67L43.49 8.84L41.72 7.07ZM33.59 24.4L23 13.79L25.12 11.67L35.73 22.27L33.59 24.4ZM40 13.79C40.3877 14.18 40.3877 14.81 40 15.2L35.76 19.45L27.98 11.67L32.22 7.42C32.4078 7.23069 32.6634 7.1242 32.93 7.1242C33.1966 7.1242 33.4522 7.23069 33.64 7.42L34.34 8.13L39.34 13.08L40 13.79ZM39.3 10.25L37.12 8.13L38.54 6.72L40.66 8.84L39.3 10.25Z"  fill="currentColor"/>
</svg>

<svg xmlns="http://www.w3.org/2000/svg" width="48" height="48" fill="none" viewBox="0 0 48 48"><path fill="currentColor" fill-rule="evenodd" d="m26.7 24.21-4.43 4.43-3.53-3.54 4.43-4.42-1.42-1.42-4.43 4.43-3.53-3.54-3.54 3.54a2 2 0 0 0 0 2.83L6 30.76C4.8302 31.9313 4.8302 33.8287 6 35l.71.71-2.82 2.83 1.77 1.77L0 46l1.41 1.42 5.66-5.66 1.77 1.77 2.83-2.83.71.71a3 3 0 0 0 2.12.87 3 3 0 0 0 2.12-.87l4.24-4.25a2 2 0 0 0 2.83 0l3.53-3.53-3.53-3.54 4.43-4.42zM8.84 40.66l-2.12-2.12 1.41-1.42 2.12 2.13zM15.2 40c-.39.3877-1.02.3877-1.41 0l-.71-.7-4.95-5-.71-.7a1 1 0 0 1 0-1.42l4.25-4.24 7.78 7.78zm7.07-4.24L11.67 25.1l2.12-2.1L24.4 33.59zM41.72 7.07l5.66-5.66L46 0l-5.69 5.66-1.77-1.77-2.83 2.83L35 6c-1.1713-1.1698-3.0687-1.1698-4.24 0l-4.24 4.24a2 2 0 0 0-2.83 0l-3.54 3.54 13.44 13.44 3.53-3.53a2 2 0 0 0 0-2.83l4.25-4.24c1.1698-1.1713 1.1698-3.0687 0-4.24l-.71-.71 2.83-2.83zM33.59 24.4 23 13.79l2.12-2.12 10.61 10.6zM40 13.79c.3877.39.3877 1.02 0 1.41l-4.24 4.25-7.78-7.78 4.24-4.25a1 1 0 0 1 1.42 0l.7.71 5 4.95zm-.7-3.54-2.18-2.12 1.42-1.41 2.12 2.12z" clip-rule="evenodd"/></svg>
